X: 16102
T: Will you go to Sherif Muir
T: Kafoozalum
%R: shottish, hornpipe, strathspey
B: James Oswald "The Caledonian Pocket Companion" v.1 b.6 p.10 #2 (8 of 9 staffs on p.11)
S: https://ia800501.us.archive.org/18/items/caledonianpocket01rugg/caledonianpocket01rugg_bw.pdf
Z: 2020 John Chambers <jc:trillian.mit.edu>
M: C|
L: 1/16
K: Amix
|: "_Brisk"\
e3fe3e c3de4 | B3cd3c B3cd4 | e3fe3d c3de4 | A3Bc3A TB4A4 :: c3A (3(A2B2A2) c3Ac4 |
d3B (3(B2c2B2) d3Bd4 | c3A (3(A2B2A2) a3Ac4 | A3Bc3A TB4A4 :: e3ae3d c3ae4 | d3bc3a B3Gd4 |
e3ae3d c3ae3c | d3e c3a TB4A4 :: c3Ae3A a3Ac4 | d3Bf3B b3Bd4 | c3Ae3A a3Ac3A |
d3fe3c TB4c4 :: (a^gfe) c3e (a^gfe) d3f | (a^gfe) c3e (a^gfe) B3e | (a^gfe) .c3e (a^gfe) d3f |
e3ac3aTB4A4 :: (3c2A2A2 (3e2A2A2 a3A c4 | (3d2B2B2 (3f2B2B2 b3B d4 | (3c2A2A2 (3e2A2A2 a3ef3c | d3fc3a TB4A4 :|


